X:1
T:Title
%%score 1 2 3 4
L:1/8
M:2/2
K:C
V:1 treble nm="Part_1"
V:2 treble-8 nm="Part_2"
V:3 treble-8 nm="Part_3"
V:4 treble-8 nm="Part_4"
V:1
 =B8 | c6 B2 | B6 G2 | A8 | G6 F2 | A6 G2 | G4 F4- | F2 E2 E4- | E2 D2 D2 C2 | E8- | E8 | z4 G4 | %12
 A4 G4- | G4 F4 | G8 | z4 A4 | B4 c4- | c2 _B2 B4- | B2 A2 A2 G2 | B8- | B8 | z8 | z8 | z8 | z8 | %25
 z8 | G8 | A4 B4 | c6 B2 | A6 ^G2 | ^G2 ^F2 A4 | B4 c4- | c2 B2 B4- | B2 A2 A2 G2 | B8- | B8 | z8 | %37
 z8 | B4 G4 | A2 G2 A4 | B8 | c6 B2 | B4 A4- | A2 G2 G4- | G2 F2 F4 | E4 D4 | F6 G2 | A6 G2 | %48
 F2 E2 E4- | E2 D2 D2 C2 | E8 |] %51
V:2
 e8 | c8 | g6 e2 | f6 d2 | e4 c4 | f6 e2 | d8 | d4 B4 | A6 G2 | G8 | z8 | d6 e2 | f3 e d4- | %13
 d4 d4 | B4 c3 d | e4 f4- | f4 g4 | a4 f4 | z4 f4 | d4 e4- | e4 e4 | B4 A2 B2 | c8 | B4 B4- | %24
 B4 A4 | B4 G4 | c8 | f4 g4 | a6 g2 | e4 e4- | e4 z4 | f4 g4- | g8 | e4 e4- | e4 z4 | e6 f2 | %36
 g6 e2 | f4 d4 | e8- | e4 f4- | f4 g4 | a8 | g4 f4- | f4 e4 | d6 c2 | B6 c2 | d8 | z4 d4- | %48
 d2 c2 B4- | B2 A2 A2 G2 | B8 |] %51
V:3
 e8 | A8 | e4 d4- | d4 c4- | c2 d2 e4 | d6 c2 | B4 A4- | A2 E2 G4 | F8 | E8- | E8 | B8 | d4 B4 | %13
 A8 | G8 | c8 | d4 e4 | A4 d4 | c8 | B8 | z4 B4 | d8 | e4 g4- | g2 f2 e4- | e2 d2 d2 c2 | e8 | e8 | %27
 d8 | A8 | c4 B4- | B4 A4 | d4 e4- | e4 d4 | c8 | B8 | z8 | B4 G4 | A2 G2 A4 | B8 | c8 | d4 e4- | %41
 e4 A4 | d8 | c8 | B4 A4 | G8 | D8 | F4 A4- | A4 G4 | F8 | E8 |] %51
V:4
 E8 | e8 | E4 G4 | D4 F4 | C8 | z4 D4 | G4 D4- | D4 E4 | A6 G2 | B4 c4- | c2 B2 B4 | G6 F2 | %12
 D4 G4 | D8 | E4 C2 C2- | C2 C2 F4 | D4 C4 | F4 D4 | F8 | G4 E4- | E2 F2 G4- | G4 D4 | C8 | E4 G4 | %24
 F8 | E8 | C8 | D4 G4 | F8 | C4 E4- | E2 D2 F4 | D4 C4- | C4 G4 | A8 | E8- | E4 G4 | E8 | %37
 D2 E2 F4 | E8 | C4 F4 | D4 z4 | A4 F4 | G4 D4 | F4 E4 | G4 D4 | E6 G2 | A8 | D8 | z4 E4 | %49
 F2 F4 E2 | G8 |] %51

